svgs/sharp-light/clipboard-medical.svg

<svg xmlns="http://www.w3.org/2000/svg" viewBox="0 0 384 512"><!--! Font Awesome Pro 6.4.2 by @fontawesome - https://fontawesome.com License - https://fontawesome.com/license (Commercial License) Copyright 2023 Fonticons, Inc. --><path d="M145.5 68c5.3-20.7 24.1-36 46.5-36s41.2 15.3 46.5 36l3.1 12H254h34v48H192 96V80h34 12.4l3.1-12zM192 0c-32.8 0-61 19.8-73.3 48H80 64V64 80H32 0v32V480v32H32 352h32V480 112 80H352 320V64 48H304 265.3C253 19.8 224.8 0 192 0zM320 144V112h32V480H32V112H64v32 16H80 192 304h16V144zM208 80a16 16 0 1 0 -32 0 16 16 0 1 0 32 0zM160 208H144v16 48H96 80v16 64 16H96h48v48 16h16 64 16V416 368h48 16V352 288 272H288 240V224 208H224 160zm16 80V240h32v48 16h16 48v32H224 208v16 48H176V352 336H160 112V304h48 16V288z"/></svg>

<svg xmlns="http://www.w3.org/2000/svg" viewBox="0 0 384 512"><!--! Font Awesome Pro 6.6.0 by @fontawesome - https://fontawesome.com License - https://fontawesome.com/license (Commercial License) Copyright 2024 Fonticons, Inc. --><path d="M145.5 68c5.3-20.7 24.1-36 46.5-36s41.2 15.3 46.5 36l3.1 12L254 80l34 0 0 48-96 0-96 0 0-48 34 0 12.4 0 3.1-12zM192 0c-32.8 0-61 19.8-73.3 48L80 48 64 48l0 16 0 16L32 80 0 80l0 32L0 480l0 32 32 0 320 0 32 0 0-32 0-368 0-32-32 0-32 0 0-16 0-16-16 0-38.7 0C253 19.8 224.8 0 192 0zM320 144l0-32 32 0 0 368L32 480l0-368 32 0 0 32 0 16 16 0 112 0 112 0 16 0 0-16zM208 80a16 16 0 1 0 -32 0 16 16 0 1 0 32 0zM160 208l-16 0 0 16 0 48-48 0-16 0 0 16 0 64 0 16 16 0 48 0 0 48 0 16 16 0 64 0 16 0 0-16 0-48 48 0 16 0 0-16 0-64 0-16-16 0-48 0 0-48 0-16-16 0-64 0zm16 80l0-48 32 0 0 48 0 16 16 0 48 0 0 32-48 0-16 0 0 16 0 48-32 0 0-48 0-16-16 0-48 0 0-32 48 0 16 0 0-16z"/></svg>
